svgs/solid/album-circle-plus.svg

<svg xmlns="http://www.w3.org/2000/svg" viewBox="0 0 576 512"><!--! Font Awesome Pro 6.2.0 by @fontawesome - https://fontawesome.com License - https://fontawesome.com/license (Commercial License) Copyright 2022 Fonticons, Inc. --><path d="M0 96C0 60.7 28.7 32 64 32H384c35.3 0 64 28.7 64 64v96.7c-5.3-.5-10.6-.7-16-.7c-20.1 0-39.5 3.4-57.5 9.6C352.3 140 293.3 96 224 96C135.6 96 64 167.6 64 256s71.6 160 160 160c12.9 0 25.4-1.5 37.4-4.4c6.5 25.5 18.5 48.7 34.8 68.4H64c-35.3 0-64-28.7-64-64V96zM224 288c-17.7 0-32-14.3-32-32s14.3-32 32-32s32 14.3 32 32s-14.3 32-32 32zM432 512c-79.5 0-144-64.5-144-144s64.5-144 144-144s144 64.5 144 144s-64.5 144-144 144zm16-208c0-8.8-7.2-16-16-16s-16 7.2-16 16v48H368c-8.8 0-16 7.2-16 16s7.2 16 16 16h48v48c0 8.8 7.2 16 16 16s16-7.2 16-16V384h48c8.8 0 16-7.2 16-16s-7.2-16-16-16H448V304z"/></svg>

<svg xmlns="http://www.w3.org/2000/svg" viewBox="0 0 576 512"><!--! Font Awesome Pro 6.1.2 by @fontawesome - https://fontawesome.com License - https://fontawesome.com/license (Commercial License) Copyright 2022 Fonticons, Inc. --><path d="M0 96C0 60.65 28.65 32 64 32H384C419.3 32 448 60.65 448 96V192.7C442.7 192.2 437.4 192 432 192C411.9 192 392.5 195.4 374.5 201.6C352.3 140 293.3 96 224 96C135.6 96 64 167.6 64 256C64 344.4 135.6 416 224 416C236.9 416 249.4 414.5 261.4 411.6C267.9 437.1 279.1 460.3 296.2 480H64C28.65 480 .0003 451.3 .0003 416L0 96zM192 256C192 238.3 206.3 224 224 224C241.7 224 256 238.3 256 256C256 273.7 241.7 288 224 288C206.3 288 192 273.7 192 256zM288 368C288 288.5 352.5 224 432 224C511.5 224 576 288.5 576 368C576 447.5 511.5 512 432 512C352.5 512 288 447.5 288 368zM448 303.1C448 295.2 440.8 287.1 432 287.1C423.2 287.1 416 295.2 416 303.1V351.1H368C359.2 351.1 352 359.2 352 367.1C352 376.8 359.2 383.1 368 383.1H416V431.1C416 440.8 423.2 447.1 432 447.1C440.8 447.1 448 440.8 448 431.1V383.1H496C504.8 383.1 512 376.8 512 367.1C512 359.2 504.8 351.1 496 351.1H448V303.1z"/></svg>
